Gurmukhi/0A75.svg

<svg enable-background="new 0 0 336 592" viewBox="0 0 336 592" xmlns="http://www.w3.org/2000/svg"><path d="m218.3535 432.651062c.557526 3.56131.85315 6.732605 1.704865 9.746735 3.848678 13.6203 14.728119 18.083801 27.089508 11.142334 2.305756-1.2948 4.336151-3.07248 6.537704-4.562165 3.039612-2.056671 5.651337-1.158355 5.479279 2.283661-.33078 6.618988-1.169739 13.228516-2.14151 19.791107-.349274 2.358643-2.890656 3.078095-4.895966 3.8331-13.227523 4.980346-25.288681 2.323669-36.043274-6.263123-12.219009-9.756073-18.034393-23.154083-20.389831-38.259949-1.339874-8.592987-.973557-17.267059-.886932-25.91452.055572-5.549103 1.693786-6.070312 6.804946-4.292145 12.831101 4.46402 19.935456 12.108307 16.723801 26.551819-.386902 1.740021-.010864 3.649719.01741 5.943146z"/><path d="m123.46756 266.9151c1.194 6.029266-.879479 10.095062-5.471321 11.395111-4.154877 1.176331-8.532326-.892273-10.283402-4.859466-1.58612-3.593476-.083992-8.313691 3.329048-10.461029 4.195084-2.639374 8.50721-1.389435 12.425675 3.925384z"/><path d="m230.879883 273.827087c-1.351273-5.62738.088943-9.292022 4.110809-11.236236 3.796555-1.835297 8.170502-.742706 10.587082 2.714386 2.548874 3.646362 2.083023 7.234009-.640198 10.499206-3.606415 4.324158-9.634063 3.55719-14.057693-1.977356z"/><path d="m232.438416 244.873398c1.075286 5.813705-.878418 9.737503-5.20961 11.11969-4.37259 1.39537-8.893952-.664002-10.66861-4.859299-1.575012-3.723343.261261-8.685638 3.943512-10.657013 4.087219-2.188156 8.38446-.72052 11.934708 4.396622z"/><path d="m110.80291 303.938782c-4.654144-.199158-7.634461-2.337494-8.834046-6.404511-.966804-3.277771.083146-6.319366 2.664902-8.530487 2.557923-2.190735 5.574021-2.822174 8.81221-1.434692 3.630974 1.555755 5.216995 4.342499 5.054276 8.252106-.197579 4.747314-2.936478 7.127899-7.697342 8.117584z"/><path d="m246.301147 303.456604c-5.879806.572388-9.73587-1.865936-10.541381-6.33139-.84401-4.678833 1.687652-8.729615 6.226928-9.963288 3.90889-1.062347 8.351929 1.133332 9.867569 4.876374 1.841828 4.548614-.059402 8.712066-5.553116 11.418304z"/><path d="m221.698761 350.846008c-4.246613-2.288177-6.524231-5.385742-5.415756-9.937988.961548-3.948883 3.559021-6.267487 7.853271-6.389801 4.20961-.119904 7.005478 1.834656 8.455704 5.678558 2.328827 6.17273-2.813538 11.419098-10.893219 10.649231z"/><path d="m177.054443 219.927124c4.49234.648376 7.622986 2.473007 8.22229 6.964767.493973 3.702317-.432037 6.923737-3.919815 8.91301-4.442001 2.533493-9.468033 1.029541-11.800445-3.484833-2.242569-4.340438-.353211-9.557434 4.247055-11.577392.896866-.393799 1.900574-.544266 3.250915-.815552z"/><path d="m209.191544 228.834595c2.540176 6.023575 1.391006 10.317169-3.060212 12.630874-4.05252 2.10643-8.758697.698273-11.171798-3.342819-2.092682-3.504501-1.284333-8.179443 1.865463-10.788406 3.256653-2.697495 7.857696-2.248261 12.366547 1.500351z"/><path d="m118.263702 328.635498c-5.832664 2.07608-10.583969-3.025085-11.121864-6.723724-.635208-4.367737 2.220154-8.475647 6.766541-9.569794 4.259109-1.024963 8.76889 1.598206 9.871025 6.140076 1.126388 4.641906-.813034 8.014709-5.515702 10.153442z"/><path d="m236.576035 328.850464c-4.617737-1.934815-7.118378-4.802796-6.217484-9.731201.80069-4.380219 3.714386-6.658356 7.881287-6.932068 4.277252-.281006 7.202911 2.049408 8.553939 6.122589 1.892945 5.707031-2.686462 10.635986-10.217742 10.54068z"/><path d="m132.882263 334.940308c4.021622 2.253753 6.059479 5.291229 5.107926 9.62387-.831742 3.787079-3.325608 6.063538-7.221192 6.621857-3.731613.534821-6.528885-1.007629-8.363403-4.1828-1.62587-2.814026-1.52385-5.852448.063011-8.577301 2.265015-3.889313 6.00454-4.344299 10.413658-3.485626z"/><path d="m209.042206 361.948608c-3.556992 3.788941-7.473847 4.607239-11.454468 1.919556-3.264221-2.20401-4.754349-5.525452-3.306641-9.59256 1.715577-4.819671 6.598755-7.027374 11.359391-5.156097 4.840362 1.902649 6.194839 6.564087 3.401718 12.829101z"/><path d="m126.702728 240.08548c7.79242-.749832 12.672776 3.408676 11.35994 9.352051-.924133 4.183822-3.55336 6.640533-7.994751 6.887176-4.264198.236847-7.131081-1.89859-8.322441-5.730926-1.409683-4.534577.272918-8.127579 4.957252-10.508301z"/><path d="m184.225372 366.789734c-3.064758 3.884155-6.730224 5.046661-10.818939 3.118835-3.210663-1.513794-4.940643-4.381225-4.672424-8.11499.281921-3.924408 2.440719-6.436676 6.108322-7.644348 3.175629-1.045624 5.961578-.022827 8.219864 2.181152 3.011261 2.938813 2.875213 6.470856 1.163177 10.459351z"/><path d="m159.00235 229.315186c2.25975 4.418335 1.780609 8.150787-1.745056 11.092178-2.770844 2.311645-6.086624 2.74765-9.31369.988785-3.642716-1.985443-4.806901-5.305222-4.209916-9.30597.465134-3.117111 2.35289-5.236145 5.240952-6.053085 3.748062-1.060211 7.27626-.519409 10.02771 3.278092z"/><path d="m143.666626 356.140198c1.63562-6.052368 4.900177-8.307465 10.109283-7.391266 3.999085.703369 6.824967 4.474243 6.511445 8.688934-.348771 4.688751-3.877503 7.923493-8.571991 7.85791-4.769104-.066681-7.52739-3.053039-8.048737-9.155578z"/></svg>

<svg version="1.1" id="Layer_1" xmlns="http://www.w3.org/2000/svg" xmlns:xlink="http://www.w3.org/1999/xlink" x="0px" y="0px"
	 width="100%" viewBox="0 0 336 592" enable-background="new 0 0 336 592" xml:space="preserve">
<path fill="#000000" opacity="1.000000" stroke="none" 
	d="
M218.353500,432.651062 
	C218.911026,436.212372 219.206650,439.383667 220.058365,442.397797 
	C223.907043,456.018097 234.786484,460.481598 247.147873,453.540131 
	C249.453629,452.245331 251.484024,450.467651 253.685577,448.977966 
	C256.725189,446.921295 259.336914,447.819611 259.164856,451.261627 
	C258.834076,457.880615 257.995117,464.490143 257.023346,471.052734 
	C256.674072,473.411377 254.132690,474.130829 252.127380,474.885834 
	C238.899857,479.866180 226.838699,477.209503 216.084106,468.622711 
	C203.865097,458.866638 198.049713,445.468628 195.694275,430.362762 
	C194.354401,421.769775 194.720718,413.095703 194.807343,404.448242 
	C194.862915,398.899139 196.501129,398.377930 201.612289,400.156097 
	C214.443390,404.620117 221.547745,412.264404 218.336090,426.707916 
	C217.949188,428.447937 218.325226,430.357635 218.353500,432.651062 
z"/>
<path fill="#000000" opacity="1.000000" stroke="none" 
	d="
M123.467560,266.915100 
	C124.661560,272.944366 122.588081,277.010162 117.996239,278.310211 
	C113.841362,279.486542 109.463913,277.417938 107.712837,273.450745 
	C106.126717,269.857269 107.628845,265.137054 111.041885,262.989716 
	C115.236969,260.350342 119.549095,261.600281 123.467560,266.915100 
z"/>
<path fill="#000000" opacity="1.000000" stroke="none" 
	d="
M230.879883,273.827087 
	C229.528610,268.199707 230.968826,264.535065 234.990692,262.590851 
	C238.787247,260.755554 243.161194,261.848145 245.577774,265.305237 
	C248.126648,268.951599 247.660797,272.539246 244.937576,275.804443 
	C241.331161,280.128601 235.303513,279.361633 230.879883,273.827087 
z"/>
<path fill="#000000" opacity="1.000000" stroke="none" 
	d="
M232.438416,244.873398 
	C233.513702,250.687103 231.559998,254.610901 227.228806,255.993088 
	C222.856216,257.388458 218.334854,255.329086 216.560196,251.133789 
	C214.985184,247.410446 216.821457,242.448151 220.503708,240.476776 
	C224.590927,238.288620 228.888168,239.756256 232.438416,244.873398 
z"/>
<path fill="#000000" opacity="1.000000" stroke="none" 
	d="
M110.802910,303.938782 
	C106.148766,303.739624 103.168449,301.601288 101.968864,297.534271 
	C101.002060,294.256500 102.052010,291.214905 104.633766,289.003784 
	C107.191689,286.813049 110.207787,286.181610 113.445976,287.569092 
	C117.076950,289.124847 118.662971,291.911591 118.500252,295.821198 
	C118.302673,300.568512 115.563774,302.949097 110.802910,303.938782 
z"/>
<path fill="#000000" opacity="1.000000" stroke="none" 
	d="
M246.301147,303.456604 
	C240.421341,304.028992 236.565277,301.590668 235.759766,297.125214 
	C234.915756,292.446381 237.447418,288.395599 241.986694,287.161926 
	C245.895584,286.099579 250.338623,288.295258 251.854263,292.038300 
	C253.696091,296.586914 251.794861,300.750366 246.301147,303.456604 
z"/>
<path fill="#000000" opacity="1.000000" stroke="none" 
	d="
M221.698761,350.846008 
	C217.452148,348.557831 215.174530,345.460266 216.283005,340.908020 
	C217.244553,336.959137 219.842026,334.640533 224.136276,334.518219 
	C228.345886,334.398315 231.141754,336.352875 232.591980,340.196777 
	C234.920807,346.369507 229.778442,351.615875 221.698761,350.846008 
z"/>
<path fill="#000000" opacity="1.000000" stroke="none" 
	d="
M177.054443,219.927124 
	C181.546783,220.575500 184.677429,222.400131 185.276733,226.891891 
	C185.770706,230.594208 184.844696,233.815628 181.356918,235.804901 
	C176.914917,238.338394 171.888885,236.834442 169.556473,232.320068 
	C167.313904,227.979630 169.203262,222.762634 173.803528,220.742676 
	C174.700394,220.348877 175.704102,220.198410 177.054443,219.927124 
z"/>
<path fill="#000000" opacity="1.000000" stroke="none" 
	d="
M209.191544,228.834595 
	C211.731720,234.858170 210.582550,239.151764 206.131332,241.465469 
	C202.078812,243.571899 197.372635,242.163742 194.959534,238.122650 
	C192.866852,234.618149 193.675201,229.943207 196.824997,227.334244 
	C200.081650,224.636749 204.682693,225.085983 209.191544,228.834595 
z"/>
<path fill="#000000" opacity="1.000000" stroke="none" 
	d="
M118.263702,328.635498 
	C112.431038,330.711578 107.679733,325.610413 107.141838,321.911774 
	C106.506630,317.544037 109.361992,313.436127 113.908379,312.341980 
	C118.167488,311.317017 122.677269,313.940186 123.779404,318.482056 
	C124.905792,323.123962 122.966370,326.496765 118.263702,328.635498 
z"/>
<path fill="#000000" opacity="1.000000" stroke="none" 
	d="
M236.576035,328.850464 
	C231.958298,326.915649 229.457657,324.047668 230.358551,319.119263 
	C231.159241,314.739044 234.072937,312.460907 238.239838,312.187195 
	C242.517090,311.906189 245.442749,314.236603 246.793777,318.309784 
	C248.686722,324.016815 244.107315,328.945770 236.576035,328.850464 
z"/>
<path fill="#000000" opacity="1.000000" stroke="none" 
	d="
M132.882263,334.940308 
	C136.903885,337.194061 138.941742,340.231537 137.990189,344.564178 
	C137.158447,348.351257 134.664581,350.627716 130.768997,351.186035 
	C127.037384,351.720856 124.240112,350.178406 122.405594,347.003235 
	C120.779724,344.189209 120.881744,341.150787 122.468605,338.425934 
	C124.733620,334.536621 128.473145,334.081635 132.882263,334.940308 
z"/>
<path fill="#000000" opacity="1.000000" stroke="none" 
	d="
M209.042206,361.948608 
	C205.485214,365.737549 201.568359,366.555847 197.587738,363.868164 
	C194.323517,361.664154 192.833389,358.342712 194.281097,354.275604 
	C195.996674,349.455933 200.879852,347.248230 205.640488,349.119507 
	C210.480850,351.022156 211.835327,355.683594 209.042206,361.948608 
z"/>
<path fill="#000000" opacity="1.000000" stroke="none" 
	d="
M126.702728,240.085480 
	C134.495148,239.335648 139.375504,243.494156 138.062668,249.437531 
	C137.138535,253.621353 134.509308,256.078064 130.067917,256.324707 
	C125.803719,256.561554 122.936836,254.426117 121.745476,250.593781 
	C120.335793,246.059204 122.018394,242.466202 126.702728,240.085480 
z"/>
<path fill="#000000" opacity="1.000000" stroke="none" 
	d="
M184.225372,366.789734 
	C181.160614,370.673889 177.495148,371.836395 173.406433,369.908569 
	C170.195770,368.394775 168.465790,365.527344 168.734009,361.793579 
	C169.015930,357.869171 171.174728,355.356903 174.842331,354.149231 
	C178.017960,353.103607 180.803909,354.126404 183.062195,356.330383 
	C186.073456,359.269196 185.937408,362.801239 184.225372,366.789734 
z"/>
<path fill="#000000" opacity="1.000000" stroke="none" 
	d="
M159.002350,229.315186 
	C161.262100,233.733521 160.782959,237.465973 157.257294,240.407364 
	C154.486450,242.719009 151.170670,243.155014 147.943604,241.396149 
	C144.300888,239.410706 143.136703,236.090927 143.733688,232.090179 
	C144.198822,228.973068 146.086578,226.854034 148.974640,226.037094 
	C152.722702,224.976883 156.250900,225.517685 159.002350,229.315186 
z"/>
<path fill="#000000" opacity="1.000000" stroke="none" 
	d="
M143.666626,356.140198 
	C145.302246,350.087830 148.566803,347.832733 153.775909,348.748932 
	C157.774994,349.452301 160.600876,353.223175 160.287354,357.437866 
	C159.938583,362.126617 156.409851,365.361359 151.715363,365.295776 
	C146.946259,365.229095 144.187973,362.242737 143.666626,356.140198 
z"/>
</svg>
